X:1
T: Lament for Mrs. Oswald of Auchincruive
C:Nathaniel Gow
R:Strathspey
Q: 128
K:Cm
M:4/4
L:1/16
|:C2|G3F E3D C4 c3d|e2dc =Bc3 G4 c3=B|A3G F3E D3E1/2F1/2 EC3|E6 FE D4 G4|
e3d c3=B c4 d3e|f3e d3c =B6 G2|c3g f3e d3c =B3c|e4 d3c c6:|
|:c2|g3e f3g e6 f2|e4 d3c c6 g2|a3f g3a g3a1/2g1/2 fe3|e6 fe d6 G2|
c3e d3E d3f e3G|e3g f3a g6 f2|e3c fgaf e4 d4|c8-c6:|
